packages/foundations/assets/icons/functional/images/editing/save_16.svg

<svg width="16" height="16" viewBox="0 0 16 16" fill="none" xmlns="http://www.w3.org/2000/svg">
<g clip-path="url(#clip0_83_280)">
<path fill-rule="evenodd" clip-rule="evenodd" d="M10.72 1.59998C10.8957 1.60011 11.0665 1.65809 11.206 1.76498L14.166 4.71498C14.2928 4.84822 14.3746 5.01783 14.4 5.19998V12.8C14.4 13.643 13.6 14.4 12.8 14.4H3.2C2.357 14.4 1.6 13.6 1.6 12.8V3.19998C1.6 2.35698 2.4 1.59998 3.2 1.59998H10.72ZM4.8 3.19998H3.2V12.8H4.8V9.59998C4.8 9.18998 5.2 8.79998 5.6 8.79998H10.4C10.81 8.79998 11.2 9.19998 11.2 9.59998V12.8H12.8V5.61198L10.387 3.19898H9.6V4.79998C9.6 5.20998 9.2 5.59998 8.8 5.59998H5.6C5.19 5.59998 4.8 5.19998 4.8 4.79998V3.19998ZM9.6 10.4H6.4V12.8H9.6V10.4Z" fill="#1A1C1F"/>
</g>
<defs>
<clipPath id="clip0_83_280">
<rect width="16" height="16" fill="white"/>
</clipPath>
</defs>
</svg>

<svg xmlns="http://www.w3.org/2000/svg" width="16" height="16" fill="none"><g clip-path="url(#a)"><path fill="#1A1C1F" fill-rule="evenodd" d="M10.72 1.6a.8.8 0 0 1 .486.165l2.96 2.95a.9.9 0 0 1 .234.485v7.6c0 .843-.8 1.6-1.6 1.6H3.2c-.843 0-1.6-.8-1.6-1.6V3.2c0-.843.8-1.6 1.6-1.6zM4.8 3.2H3.2v9.6h1.6V9.6c0-.41.4-.8.8-.8h4.8c.41 0 .8.4.8.8v3.2h1.6V5.612l-2.413-2.413H9.6V4.8c0 .41-.4.8-.8.8H5.6c-.41 0-.8-.4-.8-.8zm4.8 7.2H6.4v2.4h3.2z" clip-rule="evenodd"/></g><defs><clipPath id="a"><path fill="#fff" d="M0 0h16v16H0z"/></clipPath></defs></svg>
